X:331
T:Old Bones
C:Charlie Derrington
N:Transcribed by Mike Stangeland
R:bluegrass
L:1/8
Q:1/4=250
M:4/4
K:D
z8 |: "D"fa aa ad fa | fA df ed Ad | fa aa ae fa | "A"e2 [ed]e [e2e2] [e2A2A2] | 
"D"fa aa ad fa | fd df ed BA | de fa fe df |1 e"A"A Bc "D"d2 A2 :|2 e"A"A Bc "D"d2 dc | 
|: "Bm"B2 Bd "A"A2 Ad | "Bm"B2 Bd "A"AF EF | "Bm"B2 Bd "A"A2 AB | "A"AF EF "D"AF ED | 
"Bm"B2 Bd "A"A2 Ad | "Bm"B2 Bd "A"A2 Ad | "Bm"B2 Bd "A"AB AF |1 A"A"F EF "D"D2 ^AB :|2 A"A"F EF "D"D4 | 


